styles/2/Numix/256/places/default-folder-saved-search.svg

<?xml version="1.0" encoding="UTF-8" standalone="no"?>
<svg
   xmlns:dc="http://purl.org/dc/elements/1.1/"
   xmlns:cc="http://creativecommons.org/ns#"
   xmlns:rdf="http://www.w3.org/1999/02/22-rdf-syntax-ns#"
   xmlns:svg="http://www.w3.org/2000/svg"
   xmlns="http://www.w3.org/2000/svg"
   xmlns:sodipodi="http://sodipodi.sourceforge.net/DTD/sodipodi-0.dtd"
   xmlns:inkscape="http://www.inkscape.org/namespaces/inkscape"
   width="256px"
   height="256px"
   viewBox="0 0 256 256"
   version="1.1"
   id="svg6367"
   inkscape:version="0.91 r"
   sodipodi:docname="default-folder-saved-search.svg">
  <metadata
     id="metadata6380">
    <rdf:RDF>
      <cc:Work
         rdf:about="">
        <dc:format>image/svg+xml</dc:format>
        <dc:type
           rdf:resource="http://purl.org/dc/dcmitype/StillImage" />
      </cc:Work>
    </rdf:RDF>
  </metadata>
  <defs
     id="defs6378" />
  <sodipodi:namedview
     pagecolor="#ffffff"
     bordercolor="#666666"
     borderopacity="1"
     objecttolerance="10"
     gridtolerance="10"
     guidetolerance="10"
     inkscape:pageopacity="0"
     inkscape:pageshadow="2"
     inkscape:window-width="640"
     inkscape:window-height="480"
     id="namedview6376" />
  <g
     id="surface1">
    <path
       style=" stroke:none;fill-rule:nonzero;fill:rgb(91.372549%,69.019608%,50.196078%);fill-opacity:1;"
       d="M 36 32 C 30.140625 32 24 38.046875 24 44 L 24 48 L 12 48 C 6.117188 48 0 53.984375 0 60 L 0 212 C 0 220 4 224 12 224 L 244 224 C 250.273438 224 256 218.570312 256 212 L 256 80 C 256 73.976562 250.179688 68 244 68 L 232 68 L 232 44 C 232 38.15625 226.1875 32 220 32 Z M 36 32 "
       id="path6370" />
    <path
       style=" stroke:none;fill-rule:nonzero;fill:rgb(0%,0%,0%);fill-opacity:0.321569;"
       d="M 36 32 C 30.140625 32 24 38.046875 24 44 L 24 48 L 12 48 C 6.117188 48 0 53.984375 0 60 L 0 212 C 0 220 4 224 12 224 L 244 224 C 250.273438 224 256 218.570312 256 212 L 256 80 C 256 73.976562 250.179688 68 244 68 L 232 68 L 232 44 C 232 38.15625 226.1875 32 220 32 Z M 12 56 L 148 56 C 150.359375 56 152 58.0625 152 60 L 152 76 L 244 76 C 246.023438 76 248 78.03125 248 80 L 248 212 C 248 214.085938 246.085938 216 244 216 L 12 216 C 10.140625 216 8 214.414062 8 212 L 8 60 C 8 58.03125 10.0625 56 12 56 Z M 12 56 "
       id="path6372" />
    <path
       style=" stroke:none;fill-rule:nonzero;fill:rgb(0%,0%,0%);fill-opacity:0.321569;"
       d="M 144 92 C 121.90625 92 104 109.90625 104 132 C 104 140.382812 106.59375 148.195312 111 154.625 C 110.039062 155.015625 109.03125 155.59375 108.25 156.375 L 74.375 190.375 C 71.242188 193.507812 71.242188 198.492188 74.375 201.625 C 77.507812 204.757812 82.492188 204.757812 85.625 201.625 L 119.625 167.75 C 120.40625 166.96875 120.984375 165.960938 121.375 165 C 127.804688 169.40625 135.617188 172 144 172 C 166.09375 172 184 154.09375 184 132 C 184 109.90625 166.09375 92 144 92 Z M 144 104 C 159.460938 104 172 116.539062 172 132 C 172 147.460938 159.460938 160 144 160 C 128.539062 160 116 147.460938 116 132 C 116 116.539062 128.539062 104 144 104 Z M 144 104 "
       id="path6374" />
  </g>
</svg>

<svg xmlns="http://www.w3.org/2000/svg" viewBox="0 0 256 256">
 <g>
  <path d="m 36 32 c -5.859 0 -12 6.05 -12 12 l 0 4 l -12 0 c -5.883 0 -12 5.984 -12 12 l 0 152 c 0 8 4 12 12 12 l 232 0 c 6.273 0 12 -5.43 12 -12 l 0 -132 c 0 -6.02 -5.82 -12 -12 -12 l -12 0 l 0 -24 c 0 -5.844 -5.813 -12 -12 -12 m -184 0" style="fill:#e8b07f;fill-opacity:1;stroke:none;fill-rule:nonzero"/>
  <path d="m 36 32 c -5.859 0 -12 6.05 -12 12 l 0 4 l -12 0 c -5.883 0 -12 5.984 -12 12 l 0 152 c 0 8 4 12 12 12 l 232 0 c 6.273 0 12 -5.43 12 -12 l 0 -132 c 0 -6.02 -5.82 -12 -12 -12 l -12 0 l 0 -24 c 0 -5.844 -5.813 -12 -12 -12 m -208 24 l 136 0 c 2.359 0 4 2.063 4 4 l 0 16 l 92 0 c 2.023 0 4 2.031 4 4 l 0 132 c 0 2.086 -1.914 4 -4 4 l -232 0 c -1.859 0 -4 -1.586 -4 -4 l 0 -152 c 0 -1.969 2.063 -4 4 -4 m 0 0" style="fill:#000;fill-opacity:0.322;stroke:none;fill-rule:nonzero"/>
  <path d="m 144 92 c -22.09 0 -40 17.906 -40 40 c 0 8.383 2.594 16.195 7 22.625 c -0.961 0.391 -1.969 0.969 -2.75 1.75 l -33.875 34 c -3.133 3.133 -3.133 8.117 0 11.25 c 3.133 3.133 8.117 3.133 11.25 0 l 34 -33.875 c 0.781 -0.781 1.359 -1.789 1.75 -2.75 c 6.43 4.406 14.242 7 22.625 7 c 22.09 0 40 -17.906 40 -40 c 0 -22.09 -17.906 -40 -40 -40 m 0 12 c 15.461 0 28 12.539 28 28 c 0 15.461 -12.539 28 -28 28 c -15.461 0 -28 -12.539 -28 -28 c 0 -15.461 12.539 -28 28 -28 m 0 0" style="fill:#000;fill-opacity:0.322;stroke:none;fill-rule:nonzero"/>
 </g>
</svg>
